X:1
T: Spotted Pony, The (R-48)
M: C|
Z: Transcribed to abc by Mary Lou Knack
R: reel
K: D
FE| "D"D2D2 "A"E2E2| "D"FDF2 "G"G4| "D"ABde fede| f2a2 "A"e2 FE|
    "D"D2D2 "A"E2E2| "D"FDF2 "G"G4| "D"ABAB dBAG |1 "D"F2"A"E2 "D"D2 :|2 "D"F2"A"E2 "D"D4 |]
|:"D"f2a2 f4| "G"efed BcdB| "D"ABde fede| f2a2 "A"e4|
"D"f2a2 f4| "G"efed BcdB| "D"ABAB dBAG |1 "A"F2E2 "D"D4 :|2 "A"F2E2 "D"D2|]

